X:1
T:Ständchen Serenade
T:Ständchen Serenade
T:arranged by August Horn
T:Franz Schubert
C:Franz Schubert
%%score { ( 1 3 ) | ( 2 4 ) }
L:1/8
Q:1/4=80
M:3/4
K:F
V:1 treble nm="Piano" snm="Pno."
V:3 treble 
V:2 bass 
V:4 bass 
V:1
!pp!"^Moderato" z .[A,D].[DF].[A,D].[DF].[A,D] | z .[B,D].[DF].[B,D].[DF].[B,D] | %2
 z .[B,D].[DE].[B,D].[DE].[B,D] | z .[A,^C].[CE].[A,C].[CE].[A,C] | %4
"_dolce espressico" (3((AB)A) (d3 A) | (3((GA)G) (d2 G) z | (!>!A3 G) (3((GF)E) | F4 z2 | %8
!p! (!arpeggio!!>![A^ca]3 [eg]) (3([eg][df][ce]) | [df]6 |"_espress." (3(AB)A (f3 A) | %11
 (3(GA)G (e3 d) | (c3 B) (3(BA)G | A4 z!p! ([fd'] | [ec']3 [gb]) (3([gb][fa][eg]) | [fa]6 | %16
"^espress.\n" A>^c (f3 e) | d>A (F3 D) |!pp!({Bc} (3BA)B (d3 B) | A6 | %20
{ga} (3([Bg][A^f][Bg] !>![db]3 [Bg]) | [A=f]6 | A>^c (f3 e) | d>A (^F3 D) |({=B^c} (3B^A)B (d3 B | %25
 A6) |!f! (3([eg][^d^f][eg] !>![g=b]3 [^cg]) | [=d^f]6 |!mf! [G_B]4 (!>![Bd]>[GB]) | %29
 [^FA]3 (.[FA].[FA].[FA]) | [GA]3 (.[^CA].[EA].[GA]) | [^FA]4!pp! .[FA]2 | [G=B]4 ([Bd]>[GB]) | %33
 [^FA]3 (.[FA].[FA].[FA]) | [GA]3 (.[^CA].[EA].[GA]) | [^FA]6 |"_dolce" (3((A_B)A) (d3 A) | %37
 (3((GA)G) (d2 G) z | (!>!A3 G) (3((GF)E) | F4 z2 | (!arpeggio!!>![A^ca]3 [eg]) (3([eg][df][ce]) | %41
 [df]6 | (3(AB)A (f3 A) | (3(GA)G (e3 d) | (c3 B) (3(BA)G | A4 z ([fd'] | %46
 [ec']3 [gb]) (3([gb][fa][eg]) | [fa]6 | A>^c (f3 e) | d>A (F3 D) |!pp!({Bc} (3BA)B (d3 B | A6) | %52
{ga} (3([Bg][A^f][Bg] !>![db]3 [Bg]) | [A=f]6 | A>^c (f3 e) | d>A (^F3 D) |({=B^c} (3B^A)B (d3 B | %57
 A6) |!f! (3([eg][^d^f][eg] !>![g=b]3 [^cg]) | [=d^f]6 |"_cresc." A>A ^c>c e>e | (d2 ^c2) z2 | %62
 A3 ^ce>d | ^c3 z z2 |!f!!>(! (^f3 e) (3(ed)^c!>)! | =B>^c (!>!d2 B) z | =b>^c' (!>!d'2 b) z | %67
 =b>^c' (!>!d'2 b) z |!p!({=B^c} (3B^A)B (d3 B | =A6) |!f! (3([eg][^d^f][eg] !>![g=b]3 [G^cg]) | %71
 [^F=d-^f]6 | d3 z2 d | [F_Be]6 | [^CA^c]6 | [D^Fd]4!pp! [FA]2 | [GB]4 (!>![Bd]>[GB]) | %77
 [^FA]3 (.[FA].[FA].[FA]) | [GA]3 (.[^CA].[EA].[GA]) | [^FA]6 | [A,^FA]6 | !fermata![A,^FA]6 |] %82
V:2
 [D,,D,]4 z2 | [B,,,B,,]4 z2 | [G,,,G,,]4 z2 | [A,,,A,,]4 z2 |!p! D,, [A,D][DF][A,D][DF][A,D] | %5
 [B,,,B,,] [G,D][DE][G,D][DE][G,D] | [A,,,A,,] [G,A,][A,^C][G,A,][A,C][G,A,] | %7
 [D,,D,] [F,A,][A,D][F,A,][A,D][F,A,] |!ped! [A,,,A,,] [A,^CE][EG][A,CE][EG][A,CE]!ped-up! | %9
!ped! [D,,D,] [A,D][DF][A,D][DF][A,D]!ped-up! | [D,,D,] [A,D][DF][A,D][DF][A,D] | %11
 [B,,,B,,] [G,D][DE][G,D][DE][G,D] | [C,,C,] [G,B,C][B,CE][G,B,C][B,CE][G,B,C] | %13
 [F,,,F,,] [F,A,C][A,CF][F,A,C][A,CF] z |!ped! [C,,C,] [G,B,C][B,CE][G,B,C][B,CE][G,B,C]!ped-up! | %15
!ped! [F,,F,] [F,A,C][A,CF][F,A,C][A,CF][F,A,C]!ped-up! | [A,,,A,,] [G,A,][A,^C][G,A,][A,C][G,A,] | %17
 [D,,D,] [F,A,][A,D][F,A,][A,D][F,A,] | [B,,,B,,] [F,B,][B,D][F,B,][B,D][F,B,] | %19
 [F,,,F,,] [F,A,][A,C][F,A,][A,C][F,A,] | [C,,C,] [G,C][CE][G,C][CE][G,C] | %21
 [F,,,F,,] [F,A,C][A,CF][F,A,C][A,CF][F,A,C] | [A,,,A,,] [G,A,][A,^C][G,A,][A,C][G,A,] | %23
 [D,,D,] [^F,A,][A,D][F,A,][A,D][F,A,] | [G,,,G,,] [G,=B,][B,D][G,B,][B,D][G,B,] | %25
 [D,,D,] [^F,A,][A,D][F,A,][A,D][F,A,] |!ped! [A,,,A,,] [E,A,][A,^C][E,A,][A,C][E,A,]!ped-up! | %27
!ped! [D,,D,] [D,^F,A,][F,A,D][D,F,A,][F,A,D][D,F,A,]!ped-up! | %28
 [D,,D,] [D,G,_B,][G,B,D][D,G,B,][G,B,D][D,G,B,] | %29
 [D,,D,] [D,^F,A,][F,A,D][D,F,A,][F,A,D][D,F,A,] | [A,,,A,,] [E,A,][A,^C][E,A,][A,C][E,A,] | %31
 [D,,D,] [^F,A,][A,D][F,A,][A,D][F,A,] | [D,,D,] [D,G,=B,][G,B,D][D,G,B,][G,B,D][D,G,B,] | %33
 [D,,D,] [D,^F,A,][F,A,D][D,F,A,][F,A,D][D,F,A,] | [A,,,A,,] [E,A,][A,^C][E,A,][A,C][E,A,] | %35
 [D,,D,] [^F,A,][A,D][F,A,][A,D][F,A,] |!p! [D,,D,] [A,D][D=F][A,D][DF][A,D] | %37
 [B,,,B,,] [G,D][DE][G,D][DE][G,D] | [A,,,A,,] [G,A,][A,^C][G,A,][A,C][G,A,] | %39
 [D,,D,] [F,A,][A,D][F,A,][A,D][F,A,] |!ped! [A,,,A,,] [A,^CE][EG][A,CE][EG][A,CE]!ped-up! | %41
!ped! [D,,D,] [A,D][DF][A,D][DF][A,D]!ped-up! | [D,,D,] [A,D][DF][A,D][DF][A,D] | %43
 [B,,,B,,] [G,D][DE][G,D][DE][G,D] | [C,,C,] [G,B,C][B,CE][G,B,C][B,CE][G,B,C] | %45
 [F,,,F,,] [F,A,C][A,CF][F,A,C][A,CF] z |!ped! [C,,C,] [G,B,C][B,CE][G,B,C][B,CE][G,B,C]!ped-up! | %47
!ped! [F,,F,] [F,A,C][A,CF][F,A,C][A,CF][F,A,C]!ped-up! | [A,,,A,,] [G,A,][A,^C][G,A,][A,C][G,A,] | %49
 [D,,D,] [F,A,][A,D][F,A,][A,D][F,A,] | [B,,,B,,] [F,B,][B,D][F,B,][B,D][F,B,] | %51
 [F,,,F,,] [F,A,][A,C][F,A,][A,C][F,A,] | [C,,C,] [G,C][CE][G,C][CE][G,C] | %53
 [F,,,F,,] [F,A,C][A,CF][F,A,C][A,CF][F,A,C] | [A,,,A,,] [G,A,][A,^C][G,A,][A,C][G,A,] | %55
 [D,,D,] [^F,A,][A,D][F,A,][A,D][F,A,] | [G,,,G,,] [G,=B,][B,D][G,B,][B,D][G,B,] | %57
 [D,,D,] [^F,A,][A,D][F,A,][A,D][F,A,] |!ped! [A,,,A,,] [E,A,][A,^C][E,A,][A,C][E,A,]!ped-up! | %59
!ped! [D,,D,] [D,^F,A,][F,A,D][D,F,A,][F,A,D][D,F,A,]!ped-up! | %60
 [A,,,A,,] [A,,^C,E,][C,E,G,][A,,C,E,]!>![_B,,C,E,][C,E,G,] | %61
!ped! [A,,,A,,][A,,E,][E,G,][A,,E,]!ped-up!!>![B,,^C,E,][C,E,G,] | %62
 [A,,,A,,] [A,,E,][E,G,][A,,E,]!>![B,,^C,E,][C,E,G,] | %63
!ped! [A,,,A,,] [A,,E,][E,G,][A,,E,]!ped-up!!>![B,,^C,E,][C,E,G,] | %64
!ped! !arpeggio![^A,,^F,^C][E,F,][F,C][E,F,][F,C][E,F,]!ped-up! | %65
!ped! [=B,,,=B,,] [D,^F,][F,=B,][D,F,][F,B,][D,F,]!ped-up! | %66
 [=B,,,=B,,] [E,G,][G,=B,][E,G,][G,B,][E,G,] | [=B,,,=B,,] [D,^F,][F,=B,][D,F,][F,B,][D,F,] | %68
!ped! [G,,,G,,] [G,=B,][B,D][G,B,][B,D][G,B,]!ped-up! | %69
!ped! [D,,D,] [^F,A,][A,D][F,A,][A,D][F,A,]!ped-up! | %70
!ped! [A,,,A,,] [E,A,][A,^C][E,A,][A,C][E,A,]!ped-up! | %71
!ped! [D,,D,] [D,^F,A,][F,A,D][D,F,A,][F,A,D][D,F,A,]!ped-up! | %72
 [D,,D,] [D,=F,A,][F,A,D][D,F,A,][F,A,D][D,F,A,] | %73
!ped!"^dim." [G,,,G,,] [E,G,][G,_B,][E,G,][G,B,][E,G,]!ped-up! | %74
!ped! [A,,,A,,] [E,G,][G,A,][E,G,][G,A,][E,G,]!ped-up! | %75
!ped! D,, [D,^F,][F,A,][D,F,]!ped-up![F,A,][D,F,] | D,, [D,G,][G,B,][D,G,][G,B,][D,G,] | %77
 D,, [D,^F,][F,A,][D,F,][F,A,][D,F,] | [A,,,A,,] [A,,E,][E,G,][A,,E,][E,G,][A,,E,] | %79
!ped!"^dim." D,,[A,,D,][D,^F,][A,,D,][D,^F,][A,,D,]!ped-up! | %80
!ped! D,,[A,,D,][D,^F,][A,,D,][D,^F,][A,,D,] | !fermata![D,,A,,D,]6!ped-up! |] %82
V:3
 x6 | x6 | x6 | x6 | x6 | x6 | x6 | x6 | x6 | x6 | x6 | x6 | x6 | x6 | x6 | x6 | x6 | x6 | x6 | %19
 x6 | x6 | x6 | x6 | x6 | x6 | x6 | x6 | x6 | x6 | x6 | x6 | x6 | x6 | x6 | x6 | x6 | x6 | x6 | %38
 x6 | x6 | x6 | x6 | x6 | x6 | x6 | x6 | x6 | x6 | x6 | x6 | x6 | x6 | x6 | x6 | x6 | x6 | x6 | %57
 x6 | x6 | x6 | x6 | z2 z3/2 ^C/ E>E | (D2 ^C2) z2 | z2 z ^C E>D | x6 | x6 | [eg]2 [eg]4 | %67
 [d^f]2 [df]4 | x6 | x6 | x6 | x6 | !>![=F=f]6 | x6 | x6 | x6 | x6 | x6 | x6 | x6 | x6 | x6 |] %82
V:4
 x6 | x6 | x6 | x6 | x6 | x6 | x6 | x6 | x6 | x6 | x6 | x6 | x6 | x6 | x6 | x6 | x6 | x6 | x6 | %19
 x6 | x6 | x6 | x6 | x6 | x6 | x6 | x6 | x6 | x6 | x6 | x6 | x6 | x6 | x6 | x6 | x6 | x6 | x6 | %38
 x6 | x6 | x6 | x6 | x6 | x6 | x6 | x6 | x6 | x6 | x6 | x6 | x6 | x6 | x6 | x6 | x6 | x6 | x6 | %57
 x6 | x6 | x6 | x6 | z3/2 A,/ !>!^C x3 | x6 | x !>!A,2 x3 | x6 | x6 | x6 | x6 | x6 | x6 | x6 | x6 | %72
 x6 | x6 | x6 | x6 | x6 | x6 | x6 | x6 | x6 | x6 |] %82

